assets/icons/custom/custom13.svg

<?xml version="1.0"?><svg xmlns="http://www.w3.org/2000/svg" width="100" height="100" viewBox="0 0 100 100"><g fill="#fff"><path d="m74 22h-48c-3.3 0-6 2.7-6 6v6c0 1.1 0.9 2 2 2h56c1.1 0 2-0.9 2-2v-6c0-3.3-2.7-6-6-6z m0 20h-48c-1.1 0-2 0.9-2 2v28c0 3.3 2.7 6 6 6h40c3.3 0 6-2.7 6-6v-28c0-1.1-0.9-2-2-2z m-13 9c0 1.6-1.3 3-3 3h-16c-1.6 0-3-1.3-3-3 0-1.6 1.3-3 3-3h16c1.7 0 3 1.3 3 3z"></path></g></svg>

<svg xmlns="http://www.w3.org/2000/svg" x="0px" y="0px"
	 width="100px" height="100px" viewBox="0 0 100 100" enable-background="new 0 0 100 100" xml:space="preserve">
<g>
	<path fill="#FFFFFF" d="M74,22H26c-3.3,0-6,2.7-6,6v6c0,1.1,0.9,2,2,2h56c1.1,0,2-0.9,2-2v-6C80,24.7,77.3,22,74,22z"/>
	<path fill="#FFFFFF" d="M74,42H26c-1.1,0-2,0.9-2,2v28c0,3.3,2.7,6,6,6h40c3.3,0,6-2.7,6-6V44C76,42.9,75.1,42,74,42z M61,51
		c0,1.6-1.3,3-3,3H42c-1.6,0-3-1.3-3-3l0,0c0-1.6,1.3-3,3-3h16C59.7,48,61,49.3,61,51L61,51z"/>
</g>
</svg>
